public/img/icons/CSS.svg

<svg width="20" height="18" viewBox="0 0 20 18" fill="none" xmlns="http://www.w3.org/2000/svg">
<path d="M3.00006 0L2.35006 3.34H15.9401L15.5001 5.5H1.92006L1.26006 8.83H14.8501L14.0901 12.64L8.61006 14.45L3.86006 12.64L4.19006 11H0.850059L0.0600586 15L7.91006 18L16.9601 15L18.1601 8.97L18.4001 7.76L19.9401 0H3.00006Z" fill="#607B96"/>
</svg>

<svg width="20" height="18" fill="none" xmlns="http://www.w3.org/2000/svg"><path d="M3 0l-.65 3.34h13.59L15.5 5.5H1.92l-.66 3.33h13.59l-.76 3.81-5.48 1.81-4.75-1.81.33-1.64H.85l-.79 4 7.85 3 9.05-3 1.2-6.03.24-1.21L19.94 0H3z" fill="#607B96"/></svg>
